X: 1651
T: The Full of the Bag
M:C|
L:1/8
B:O'Neill's 1651
N:"collected by Cronin"
K:G
D-F \
| GDB,D G,B,DG | BGAB cdef | afge dBAB | cABG AGEF |
| GDB,D G,B,DG | BGAB cdef | afge dgec | BGAF G2 :|
|: G-A \
| BcBAGABc | ded^c defg | BcBA GABd | cBAG FGAc |
| BcBA GABc | ded^c defg | afge dgec | BGAF G2 :|
|: A2 \
| Beef e^def | gebe geag | fdd^c defg | afge dcBA |
| Beef e^def | gebe g2 ag | fe^dfe=dB^c | dBAF E2 :|


